X:1
T:Title
%%score 1 { 2 | 3 }
L:1/8
Q:1/4=110
M:4/4
K:F
V:1 treble nm="Grand Piano, Staff 1"
V:2 treble nm="Choir Pad, Dalehurst"
V:3 bass 
V:1
 [FA]2 [EG]2 F2 [FB]2 | [FA]2 [EA]2- [EA][EG] F2 | F2 [DG]2 [^FA]2 [GB]2 | [GB]2 [GB]6 | %4
w: By~Arthur~Cottman,~1874 * * *||||
 [EG]2 [FA]2 [_Ec]2 [Ed]2 | [_Ec]2 [Dc]2- [Dc][DB] [DF]2 | [^CG]2 [=CA]2 [FA]2 [EB]2- | %7
w: |||
 [EB][CE] [CF]6- | [CF]2 z2 z4 |] %9
w: ||
V:2
 C2 B,2 A,2 D2 | C2 C2- C[K:bass]B, A,2 | A,2 B,2 C2[K:treble] D2 | ^C2 =C6 | %4
 C2 C2[K:bass] A,2 A,2 | A,2 B,2- B,B, B,2 | F,2 F,2 A,2 G,2- | G,B, A,6- | A,2 z2 z4 |] %9
V:3
 F,2 F,2 F,2 F,2 | F,2 C,2- C,C, D,2 | D,2 z2 A,2 G,2 | F,2 E,6 | C,2 F,2 F,2 F,2 | %5
 F,2 B,,2- B,,B,, B,,2 | B,,2 C,2 C,2 C,2- | C,C, [F,,F,]6- | [F,,F,]2 z2 z4 |] %9

